X:1
T:Title
%%score { 1 | ( 2 3 ) }
L:1/8
M:4/4
K:C
V:1 treble nm="Grand Piano"
V:2 bass 
V:3 bass 
V:1
 z4 z2[Q:1/4=100] [CE][DF] | [EG]3 [EG] G2 AB | [Ec]6 [GB][FA] | [EG]3 [FA] [EG]2 [CE]2 | %4
 [B,D]6 [CE][DF] | [EG]3 [EG] G2 AB | [CEc]6 [DG][EGA] | [GB]3 [Ac] [GB]2 [^FA]2 | G6 GG | %9
 [Ec]3 [EG] [CE]2 [EG]2 | [FA]6 [^FA][FA] | [^Fd]3 [Ac] B2 c2 | d6 GG | [Ge]3 [Fd] [Ec]2 [GB]2 | %14
 A6 AA | G3 c e2 d2 |[M:3/4] [Ec]6 |] %17
V:2
 z4 z2 [C,G,][C,G,] | z4 z2[K:treble] .C2 | [C,C]6 [C,C][C,C] | [C,C]3 [C,C] [C,C]2 [C,G,]2 | %4
 [G,,G,]6 [C,G,][C,G,] | [C,C]3 [C,C][K:treble] [G,DF]2 [G,DF]2 | C,6 B,,C, | %7
 [D,D]3 [D,D] [D,D]2 [D,C]2 | [G,B,]6[K:treble] [G,B,F][G,B,F] | [C,C]3 [C,C] [C,G,]2 [C,C]2 | %10
 [F,C]6 [D,D][D,D] | [D,A,]3 [D,D][K:treble] [G,DG]2 [G,A,G]2 | [G,B,G]6 [G,B,][G,B,] | %13
 [C,C]3 [C,C] [C,C]2 [E,C]2 | [F,CF]6[K:treble] [F,CF][F,CF] | [G,CE]3 [G,E] [G,CG]2 [G,B,F]2 | %16
[M:3/4][K:bass] [C,C]6 |] %17
V:3
 x8 | [C,C]3 [C,C] [G,B,D]2[K:treble] [G,F]-[G,DF] | x8 | x8 | x8 | x4[K:treble] x4 | x8 | x8 | %8
 x6[K:treble] x2 | x8 | x8 | x4[K:treble] x4 | x8 | x8 | x6[K:treble] x2 | x8 | %16
[M:3/4][K:bass] x6 |] %17

